X:5686
T:Roy's Wife Of Aldivallock. JMT062
O:england
M:C
L:1/8
Q:120
S:J.Moore,Tyneside,1841.(45a)
R:Strathspey
A:Northumbria
K:D
A<F F>E FE FB|A>F F>D E>DEF|A>F E>D d>ef>e|d>B A>F E>D EF:|
|:A>B d>f e/d/e/f/ dB|AB/c/ d>A E>DEF|AB/c/ d>f e/d/g/f/ {f}ed/e/|f>e d>
F FE Fd/B/:|]


